cssgg/format-right.svg

<svg
  width="24"
  height="24"
  viewBox="0 0 24 24"
  fill="none"
  xmlns="http://www.w3.org/2000/svg"
>
  <path
    d="M20 5C20.5523 5 21 5.44772 21 6C21 6.55228 20.5523 7 20 7H4C3.44772 7 3 6.55228 3 6C3 5.44772 3.44772 5 4 5H20Z"
    fill="currentColor"
  />
  <path
    d="M20 9C20.5523 9 21 9.44772 21 10C21 10.5523 20.5523 11 20 11H12C11.4477 11 11 10.5523 11 10C11 9.44772 11.4477 9 12 9H20Z"
    fill="currentColor"
  />
  <path
    d="M21 14C21 13.4477 20.5523 13 20 13H4C3.44772 13 3 13.4477 3 14C3 14.5523 3.44772 15 4 15H20C20.5523 15 21 14.5523 21 14Z"
    fill="currentColor"
  />
  <path
    d="M20 17C20.5523 17 21 17.4477 21 18C21 18.5523 20.5523 19 20 19H12C11.4477 19 11 18.5523 11 18C11 17.4477 11.4477 17 12 17H20Z"
    fill="currentColor"
  />
</svg>

<svg viewBox="0 0 24 24" xmlns="http://www.w3.org/2000/svg"><g><path d="M20 5c.55 0 1 .44 1 1 0 .55-.45 1-1 1H4c-.56 0-1-.45-1-1 0-.56.44-1 1-1h16Z"/><path d="M20 9c.55 0 1 .44 1 1 0 .55-.45 1-1 1h-8c-.56 0-1-.45-1-1 0-.56.44-1 1-1h8Z"/><path d="M21 14c0-.56-.45-1-1-1H4c-.56 0-1 .44-1 1 0 .55.44 1 1 1h16c.55 0 1-.45 1-1Z"/><path d="M20 17c.55 0 1 .44 1 1 0 .55-.45 1-1 1h-8c-.56 0-1-.45-1-1 0-.56.44-1 1-1h8Z"/></g></svg>
